packages/katcn/src/icons/svg/arrow9.svg

<svg width="24" height="25" viewBox="0 0 24 25" fill="none" xmlns="http://www.w3.org/2000/svg">
<path d="M22.8636 9.03019L20.8085 2.89445C20.5149 2.10275 19.8298 1.50897 18.9491 1.31104C18.0683 1.21208 17.2854 1.60793 16.6982 2.30067L16.3068 2.79549C14.9367 2.10275 13.3709 1.70689 11.8051 1.70689C7.30335 1.70689 3.19311 4.77476 2.01875 9.22812C1.92089 9.72294 2.21448 10.3167 2.70379 10.5146C3.19311 10.6136 3.78029 10.3167 3.87815 9.8219C4.85678 6.25922 8.08626 3.78513 11.8051 3.78513C13.273 3.78513 14.7409 4.18098 16.111 4.97269C16.5025 5.26958 17.0897 5.17062 17.3832 4.6758L18.264 3.48824C18.3619 3.29031 18.5576 3.29031 18.6555 3.29031C18.7533 3.29031 18.8512 3.38927 18.9491 3.48824L21.102 9.62397C21.1999 9.8219 21.102 10.0198 20.9063 10.1188H20.8085L14.2516 10.2178C14.0559 10.2178 13.958 10.1188 13.958 10.0198C13.958 9.92087 13.8602 9.8219 13.958 9.62397L14.9367 8.13952C15.1324 7.9416 15.1324 7.6447 15.1324 7.34781C15.0345 7.05092 14.9367 6.853 14.6431 6.65507C13.7623 6.16025 12.7837 5.96232 11.8051 5.96232C9.65207 5.96232 7.69481 7.14989 6.61831 9.03019C6.42259 9.52501 6.52045 10.1188 7.00977 10.4157C7.49908 10.6136 8.08626 10.5146 8.37985 10.0198C9.06489 8.7333 10.435 7.94159 11.9029 7.94159C12.1965 7.94159 12.4901 7.9416 12.7837 8.04056L12.4901 8.53538C12.0008 9.22812 11.9029 10.2178 12.2944 11.0095C12.6858 11.8012 13.4687 12.296 14.3495 12.296L20.8085 12.197C21.1999 12.197 21.5914 12.0981 21.8849 11.9001C22.7657 11.3064 23.255 10.1188 22.8636 9.03019Z" fill="black"/>
<path d="M21.3849 14.0116C20.8887 13.8098 20.2931 14.2134 20.1939 14.718C19.2013 18.2501 15.9259 20.7731 12.2535 20.7731C10.7647 20.7731 9.27591 20.3694 7.9856 19.562C7.58858 19.2593 6.99306 19.3602 6.69529 19.8648L5.80201 21.0758C5.70275 21.1767 5.50424 21.1767 5.40499 21.1767C5.30573 21.1767 5.20648 21.0758 5.10723 20.9749L3.02289 14.8189C2.92363 14.6171 3.02289 14.4153 3.22139 14.3143H3.32065L9.77218 14.2134C9.97069 14.2134 10.0699 14.3143 10.0699 14.4153C10.0699 14.5162 10.1692 14.6171 10.0699 14.8189L9.0774 16.3327C8.87889 16.5345 8.87889 16.8373 8.87889 17.14C8.97814 17.4428 9.0774 17.6446 9.37516 17.8464C10.2684 18.351 11.1617 18.5529 12.2535 18.5529C14.4371 18.5529 16.4222 17.3419 17.4148 15.5253C17.7125 15.0208 17.514 14.4153 17.0177 14.1125C16.5215 13.8098 15.9259 14.0116 15.6282 14.5162C14.9334 15.8281 13.5438 16.5345 12.1543 16.5345C11.8565 16.5345 11.5588 16.5345 11.3602 16.4336L11.658 16.0299C12.1543 15.3235 12.2535 14.3143 11.8565 13.6079C11.4595 12.8006 10.6655 12.296 9.77218 12.296L3.32065 12.3969C2.92363 12.3969 2.52661 12.4978 2.22885 12.6997C1.23631 13.2042 0.740038 14.5162 1.13705 15.6263L3.22139 21.7822C3.51916 22.5896 4.21394 23.1951 5.10723 23.296C5.20648 23.296 5.30573 23.296 5.40499 23.296C6.19902 23.296 6.8938 22.8923 7.29082 22.2868L7.58858 21.7822C8.97814 22.4887 10.467 22.7914 12.055 22.7914C16.6207 22.7914 20.5909 19.663 21.8812 15.2226C22.179 14.718 21.8812 14.1125 21.3849 14.0116Z" fill="black"/>
</svg>

<svg xmlns="http://www.w3.org/2000/svg" fill="none" viewBox="0 0 24 25"><path fill="#000" d="m22.864 9.03-2.056-6.136c-.293-.791-.978-1.385-1.859-1.583-.88-.099-1.664.297-2.25.99l-.392.494a10.1 10.1 0 0 0-4.502-1.088c-4.502 0-8.612 3.068-9.786 7.521-.098.495.195 1.089.685 1.287.49.099 1.076-.198 1.174-.693a8.206 8.206 0 0 1 7.927-6.037c1.468 0 2.936.396 4.306 1.188.392.297.979.198 1.272-.297l.881-1.188c.098-.198.294-.198.392-.198.097 0 .195.1.293.198l2.153 6.136c.098.198 0 .396-.196.495h-.098l-6.556.099c-.196 0-.294-.1-.294-.198 0-.1-.098-.198 0-.396l.979-1.484c.195-.198.195-.495.195-.792-.098-.297-.195-.495-.489-.693-.88-.495-1.86-.693-2.838-.693-2.153 0-4.11 1.188-5.187 3.068-.195.495-.098 1.089.392 1.386.49.198 1.076.099 1.37-.396.685-1.287 2.055-2.078 3.523-2.078.293 0 .587 0 .88.099l-.293.494a2.48 2.48 0 0 0-.196 2.474 2.28 2.28 0 0 0 2.056 1.287l6.458-.099c.392 0 .783-.099 1.077-.297.88-.594 1.37-1.781.979-2.87m-1.479 4.982c-.496-.202-1.092.201-1.191.706-.993 3.532-4.268 6.055-7.94 6.055a8.05 8.05 0 0 1-4.268-1.211c-.397-.303-.993-.202-1.29.303l-.894 1.21c-.1.102-.298.102-.397.102s-.199-.101-.298-.202l-2.084-6.156c-.1-.202 0-.404.198-.505h.1l6.451-.1c.199 0 .298.1.298.201s.1.202 0 .404l-.993 1.514c-.198.202-.198.504-.198.807.1.303.198.505.496.706.893.505 1.787.707 2.879.707 2.183 0 4.168-1.211 5.16-3.028.298-.504.1-1.11-.396-1.412-.497-.303-1.092-.101-1.39.403-.695 1.312-2.084 2.019-3.474 2.019-.297 0-.595 0-.794-.101l.298-.404c.496-.707.596-1.716.199-2.422a2.31 2.31 0 0 0-2.085-1.312l-6.451.1c-.397 0-.794.102-1.092.304-.993.504-1.489 1.816-1.092 2.926l2.084 6.156c.298.808.993 1.413 1.886 1.514h.298c.794 0 1.489-.404 1.886-1.01l.298-.504c1.39.707 2.878 1.01 4.466 1.01 4.566 0 8.536-3.129 9.826-7.57.298-.504 0-1.11-.496-1.21"/></svg>
